images_sukapura_svg/cmd/lc_grow.svg

<svg viewBox="0 0 24 24" xmlns="http://www.w3.org/2000/svg" xmlns:xlink="http://www.w3.org/1999/xlink"><linearGradient id="a" gradientUnits="userSpaceOnUse" x1="-5.830508" x2="-5.830508" y1="1.406781" y2="-2.593219"><stop offset="0" stop-color="#0040dd"/><stop offset="1" stop-color="#0a84ff"/></linearGradient><path d="m14.860962 17.347666h-7.7494036l-1.621329 4.657886h-3.6136402l7.5570422-20.0055514h3.1189976l7.570782 20.0055514h-3.62738zm-6.7738581-2.802975h5.7983121l-2.899156-8.2990067z" fill="#696969"/><path d="m19.509766 1.5-3.003907 3h6z" fill="url(#a)" stroke="url(#a)" stroke-linecap="round" stroke-linejoin="round"/></svg>

<?xml version="1.0" encoding="UTF-8" standalone="no"?>
<svg
   xmlns:dc="http://purl.org/dc/elements/1.1/"
   xmlns:cc="http://creativecommons.org/ns#"
   xmlns:rdf="http://www.w3.org/1999/02/22-rdf-syntax-ns#"
   xmlns:svg="http://www.w3.org/2000/svg"
   xmlns="http://www.w3.org/2000/svg"
   xmlns:xlink="http://www.w3.org/1999/xlink"
   xmlns:sodipodi="http://sodipodi.sourceforge.net/DTD/sodipodi-0.dtd"
   xmlns:inkscape="http://www.inkscape.org/namespaces/inkscape"
   viewBox="0 0 24 24"
   version="1.1"
   id="svg12"
   sodipodi:docname="lc_grow.svg"
   inkscape:version="0.92.3 (unknown)"
   inkscape:export-filename="/home/rizmut/Dokumen/Rizmut/Github/libreoffice-style-sukapura/images_sukapura/cmd/lc_grow.png"
   inkscape:export-xdpi="96"
   inkscape:export-ydpi="96">
  <metadata
     id="metadata18">
    <rdf:RDF>
      <cc:Work
         rdf:about="">
        <dc:format>image/svg+xml</dc:format>
        <dc:type
           rdf:resource="http://purl.org/dc/dcmitype/StillImage" />
      </cc:Work>
    </rdf:RDF>
  </metadata>
  <defs
     id="defs16">
    <linearGradient
       gradientTransform="translate(-25.830508,-3.5932203)"
       id="a"
       gradientUnits="userSpaceOnUse"
       x1="14"
       x2="13.79661"
       y1="22"
       y2="2.1355929">
      <stop
         offset="0"
         stop-color="#0040dd"
         id="stop2" />
      <stop
         offset="1"
         stop-color="#0a84ff"
         id="stop4" />
    </linearGradient>
    <linearGradient
       inkscape:collect="always"
       xlink:href="#a"
       id="linearGradient1341"
       gradientUnits="userSpaceOnUse"
       gradientTransform="matrix(-1,0,0,1,-29.010942,26.95119)"
       x1="-31.010942"
       y1="-4.95119"
       x2="-31.010942"
       y2="-16.951191" />
    <linearGradient
       inkscape:collect="always"
       xlink:href="#a"
       id="linearGradient865"
       x1="9.0071211"
       y1="3.58816"
       x2="5.0071211"
       y2="3.5660629"
       gradientUnits="userSpaceOnUse" />
    <linearGradient
       inkscape:collect="always"
       xlink:href="#a"
       id="linearGradient873"
       x1="9.0071211"
       y1="3.58816"
       x2="5.0071211"
       y2="3.5660629"
       gradientUnits="userSpaceOnUse" />
    <linearGradient
       inkscape:collect="always"
       xlink:href="#a"
       id="linearGradient894"
       gradientUnits="userSpaceOnUse"
       x1="20"
       y1="5.0000005"
       x2="20"
       y2="1.0000005" />
    <linearGradient
       inkscape:collect="always"
       xlink:href="#a"
       id="linearGradient896"
       gradientUnits="userSpaceOnUse"
       x1="20"
       y1="5.0000005"
       x2="20"
       y2="1.0000005" />
  </defs>
  <sodipodi:namedview
     pagecolor="#ffffff"
     bordercolor="#666666"
     borderopacity="1"
     objecttolerance="10"
     gridtolerance="10"
     guidetolerance="10"
     inkscape:pageopacity="0"
     inkscape:pageshadow="2"
     inkscape:window-width="1366"
     inkscape:window-height="706"
     id="namedview14"
     showgrid="true"
     inkscape:zoom="11.313709"
     inkscape:cx="19.878995"
     inkscape:cy="12.707897"
     inkscape:window-x="0"
     inkscape:window-y="0"
     inkscape:window-maximized="1"
     inkscape:current-layer="svg12">
    <inkscape:grid
       type="xygrid"
       id="grid828" />
  </sodipodi:namedview>
  <g
     aria-label="A"
     style="font-style:normal;font-weight:normal;font-size:28.13967705px;line-height:1.25;font-family:sans-serif;letter-spacing:0px;word-spacing:0px;fill:#696969;fill-opacity:1;stroke:none;stroke-width:0.70349199"
     id="text832">
    <path
       d="M 14.860962,17.347666 H 7.1115584 l -1.621329,4.657886 H 1.8765892 L 9.4336314,2.0000006 h 3.1189976 l 7.570782,20.0055514 h -3.62738 z M 8.0871039,14.544691 H 13.885416 L 10.98626,6.2456843 Z"
       style="font-style:normal;font-variant:normal;font-weight:500;font-stretch:normal;font-family:Roboto;-inkscape-font-specification:'Roboto Medium';stroke-width:0.70349199;fill:#696969;fill-opacity:1"
       id="path834" />
  </g>
  <g
     fill="none"
     stroke="#4d82b8"
     stroke-linecap="round"
     stroke-linejoin="round"
     transform="matrix(0 1 -1 0 24 -4.007121)"
     id="g10"
     style="fill-opacity:1;fill:url(#linearGradient865);stroke:url(#linearGradient873)">
    <path
       d="M 19.509766 1.5 L 16.505859 4.5 L 22.505859 4.5 L 19.509766 1.5 z "
       transform="rotate(-90,14.00356,9.9964395)"
       id="path6"
       style="fill-opacity:1;fill:url(#linearGradient896);stroke:url(#linearGradient894)" />
  </g>
</svg>
